packages/foundations/assets/icons/functional/images/social/star_14.svg

<svg width="14" height="14" viewBox="0 0 14 14" fill="none" xmlns="http://www.w3.org/2000/svg">
<g clip-path="url(#clip0_187_442)">
<path fill-rule="evenodd" clip-rule="evenodd" d="M7.00002 1.64069C7.26252 1.64069 7.52502 1.79378 7.63436 2.03437L8.96877 4.76878L12.0094 5.20628C12.3375 5.25003 12.6 5.53437 12.6 5.90628C12.6 6.08128 12.5125 6.27819 12.3813 6.40937L10.1938 8.53128L10.7188 11.55C10.7844 11.9875 10.4563 12.3594 10.0188 12.3594C9.90936 12.3594 9.80002 12.3157 9.71252 12.2719L7.00002 10.85L4.28752 12.2719C4.17818 12.3375 4.09068 12.3594 3.95936 12.3594C3.54377 12.3594 3.21568 11.9438 3.28127 11.55L3.80627 8.53128L1.61877 6.40937C1.48752 6.27819 1.40002 6.08128 1.40002 5.90628C1.40002 5.62187 1.59686 5.27187 1.99068 5.20628L5.03127 4.76878L6.36568 2.03437C6.47502 1.79378 6.73752 1.64069 7.00002 1.64069ZM7.00002 3.91569L6.10318 5.70937C5.99377 5.92819 5.81877 6.05937 5.57818 6.10319L3.60936 6.38753L5.03127 7.78753C5.18436 7.94069 5.29377 8.20319 5.25002 8.40003L4.90002 10.3688L6.67186 9.45003C6.78127 9.38437 6.89068 9.36253 7.00002 9.36253C7.10936 9.36253 7.21877 9.38437 7.32818 9.45003L9.10002 10.3688L8.75002 8.40003C8.70627 8.18128 8.81568 7.94069 8.96877 7.78753L10.3907 6.38753L8.42186 6.10319C8.18127 6.05937 8.00627 5.90628 7.89686 5.70937L7.00002 3.91569Z" fill="#1A1C1F"/>
</g>
<defs>
<clipPath id="clip0_187_442">
<rect width="14" height="14" fill="white"/>
</clipPath>
</defs>
</svg>

<svg xmlns="http://www.w3.org/2000/svg" width="14" height="14" fill="none"><g clip-path="url(#a)"><path fill="#1A1C1F" fill-rule="evenodd" d="M7 1.64c.263 0 .525.154.634.394L8.97 4.77l3.04.437a.69.69 0 0 1 .591.7.75.75 0 0 1-.219.503l-2.187 2.122.525 3.019a.698.698 0 0 1-.7.81.7.7 0 0 1-.306-.088L7 10.85l-2.712 1.422a.57.57 0 0 1-.329.087c-.415 0-.743-.415-.678-.809l.525-3.019L1.62 6.41a.75.75 0 0 1-.219-.503c0-.284.197-.634.59-.7l3.041-.437 1.335-2.735A.7.7 0 0 1 7 1.641m0 2.276-.897 1.793a.7.7 0 0 1-.525.394l-1.969.285 1.422 1.4c.153.153.263.415.219.612l-.35 1.969 1.772-.919A.6.6 0 0 1 7 9.363c.11 0 .219.021.328.087l1.772.919L8.75 8.4c-.044-.219.066-.46.219-.612l1.422-1.4-1.97-.285a.75.75 0 0 1-.524-.394z" clip-rule="evenodd"/></g><defs><clipPath id="a"><path fill="#fff" d="M0 0h14v14H0z"/></clipPath></defs></svg>
